!!!COM: Music21
!!!OTL: Marcha procesional
!!!OMV: pezas_marchas_marcha-procesional-12_marcha-procesional-partitura.musicxml
**kern
*I"Bagpipes
*I'Bag
*clefG^2
*k[]
*M6/8
=1
!LO:TX:a:t=Andante
*MM105
!LO:TX:a:t=[quarter]=105
8.cccL
16bbK
8ggJ
8.bbL
16aaK
8ffJ
=
16ggLL
16aa
16gg
16ff
16ee
16ddJJ
16eeLL
16ff
16ee
16ddJ
8ccJ
=
8.cccL
16bbK
8ggJ
8.bbL
16aaK
8ffJ
=
16ggLL
16aa
16gg
16ff
16ee
16ddJJ
4.cc
=||
*M6/8
!LO:TX:a:t=Andante
*MM105
!LO:TX:a:t=[quarter]=105
8.cccL
16bbK
8ggJ
8.bbL
16aaK
8ffJ
!!linebreak:original
=
16ggLL
16aa
16gg
16ff
16ee
16ddJJ
16eeLL
16ff
16ee
16ddJ
8ccJ
=
8.cccL
16bbK
8ggJ
8.bbL
16aaK
8ffJ
=
16ggLL
16aa
16gg
16ff
16ee
16ddJJ
4.cc
=||
8.ddL
16ccK
8ddJ
8.eeL
16ddK
8ccJ
!!linebreak:original
=
16ggLL
16aa
16gg
16ff
16ee
16ddJJ
16eeLL
16ff
16ee
16ddJ
8ccJ
=
8.ddL
16ccK
8ddJ
8.eeL
16ddK
8ccJ
=
16ggLL
16aa
16gg
16ff
16ee
16ddJJ
4.cc
=||
8.ddL
16ccK
8ddJ
8.eeL
16ddK
8ccJ
!!linebreak:original
=
16ggLL
16aa
16gg
16ff
16ee
16ddJJ
16eeLL
16ff
16ee
16ddJ
8ccJ
=
8.ddL
16ccK
8ddJ
8.eeL
16ddK
8ccJ
=
16ggLL
16aa
16gg
16ff
16ee
16ddJJ
4.cc
=||
*-
